!!!OTL: 1054. Zusammengeschossene Shnadahuepfln.
!!!ODT: 1824
!!!ARE: Europa, Mitteleuropa, Deutschland, Bayern
!!!SCT: E1054
!!!TXL: @@SWG
!!!YEM: Copyright 1995, estate of Helmut Schaffrath.
**kern	**text
*ICvox	*
*M3/4	*
*k[f#]	*
*G:	*
!LO:TX:a:t=Ländler-Tempo.	!
!LO:TX:a:t=Bayriſch. 1824.	!
{4d	Schö
=1	=1
4d	jung
4g	is
4g	mai
=2	=2
8f#q	.
4.a	Blüt
8a}	un
{4a	ſchö
=3	=3
8aq	.
4dd	rund
4dd	is
4cc	mai
=4	=4
4b	Hüt,
4dd}	und
{4dd	Ku-
=5	=5
4dd	-raſch
4cc	wie
4b	a
=6	=6
4b	Teu-
4a	-fel,
8r}	.
{8g	will
=7	=7
4g	ſehn
4f#	wer
4e	mirs
=8	=8
2.f#}	thut!
=9	=9
{8d	Hui-
8r	.
2dd^	-di
=10	=10
4.cc	hui-
8a	-de
4f#}	ra,
=11	=11
{8dd	ri-
8ee	-di-
8dd	-ri-
8ee	-dir-
8dd	-ri-
8ee	-di
=12	=12
(8ddL	rui-
8bJ)	.
2g}	-da,
=13	=13
{4e	hui-
2cc^	-di,
=14	=14
4b	rul-
2dd^}	-la,
=15	=15
{(8bq	.
8a)	hul-
8g#	-la
8a	ri-
8g#	-di-
8a	-ri-
8b7	-di-
=16	=16
4gn	-ral-
2dd^}	-la,
=17	=17
{4a	hul-
2dd^	-la-
=18	=18
4b^	-rull!
4r}	.
==	==
!!!AGN: Tanz - Lied, Schnadahuepfel
!!!ONB: ESAC (Essen Associative Code) Database: ERK3
!!!AMT: simple triple
!!!AIN: vox
!!!EED: Helmut Schaffrath
!!!EEV: 1.0
!!!GTL: Tanz- und Spiellieder
!!!URL-scan: https://rosdok.uni-rostock.de/mcrviewer/recordIdentifier/rosdok_ppn745177662/iview2/phys_0796.iview2?x=-182.10329807093967&y=496.8602365250699&scale=0.6479838709677419&rotation=0&layout=singlePageLayout
!!!ENC: Anna Maria Matuszewska
!!!EEV: 2024/12/23
*-	*-
